!!!COM: Mozart, Wolfgang Amadeus
!!!CDT: 1756/01/27/-1791/12/05/
!!!CNT: German
!!!OTL: Piano Sonata No. 13 in B-flat major
!!!SCT1: K<sup>1</sup> 333
!!!SCT2: K<sup>6</sup> 315c
!!!OMV: 2
!!!OMD: Andante cantabile
!!!ODT: ~1783///
**kern	**kern	**dynam
*staff2	*staff1	*staff1/2
*>[A,A,B,B1,B,B2]	*>[A,A,B,B1,B,B2]	*>[A,A,B,B1,B,B2]
*>norep[A,B,B2]	*>norep[A,B,B2]	*>norep[A,B,B2]
*>A	*>A	*>A
*clefF4	*clefG2	*clefG2
*k[b-e-a-]	*k[b-e-a-]	*k[b-e-a-]
*E-:	*E-:	*E-:
*M3/4	*M3/4	*M3/4
*MM60	*MM60	*MM60
=1-	=1-	=1-
2E-	4g 4b-	.
.	(8f 8a-L	.
.	8e- 8g	.
4r	8a- 8cc	.
.	8g) 8b-J	.
=2	=2	=2
(4E-	(4g 4b-	.
4F	4f 4a-	.
4G)	4e-) 4g	.
=3	=3	=3
4B- (4d-	(4en	.
4A- 4c)	8fL	.
.	8ccJ)	.
4r	(16b-LL	.
.	16a-	.
.	16g	.
.	16fJJ)	.
=4	=4	=4
(16AAnLL	(>(4G 4e-X	.
16BB-	.	.
16C	.	.
16BB-JJ)	.	.
4BB-	16F) 16dLL)	.
.	32r	.
.	32B-JJk	.
.	32dLLL	.
.	(32c	.
.	32e-	.
.	32dJJJ	.
4r	32fLLL	.
.	32e-	.
.	32g	.
.	32fJJJ	.
.	32a-LLL	.
.	32g	.
.	32b-	.
.	32a-JJJ)	.
=5	=5	=5
*	*^	*
4EE- 4E-	(16ccLK	4g	.
.	8b-	.	.
.	32ccLL	.	.
.	32b-JJJ	.	.
4r	16a-LL	2ryy	.
.	16g	.	.
.	16f	.	.
.	16e-JJ)	.	.
4E- 4c	(16ggLL	.	.
.	16dd	.	.
.	16ee-	.	.
.	16ccJJ	.	.
*	*v	*v	*
=6	=6	=6
4F 4c	4b-	.
4B- 4d	8.a-TL	.
.	32gLL	.
.	32a-JJJ	.
8c 8e-	16gLL>)	.
.	(>16ee-	.
8r	16dd	.
.	16dd-JJ	.
=7	=7	=7
*^	*^	*
4A-	4AA-	16bnLL<)	2ryy	.
.	.	(32ddnL	.	.
.	.	32ccJ)	.	.
.	.	(32b-L	.	.
.	.	32a-J)	.	.
.	.	(32gL	.	.
.	.	32fJJJ)	.	.
(4G	2BB-	(4.e-	.	.
4A-)	.	.	8ryy	.
.	.	16gLL	8d	.
.	.	16fJJ)	.	.
*v	*v	*	*	*
*	*v	*v	*
=8	=8	=8
(16E-LL	4e-	.
16G	.	.
16B-	.	.
16GJJ	.	.
16E-LL	8r	.
16G	.	.
16B-	(8g' 8b-'L	.
16GJJ	.	.
16E-LL	8g' 8b-'	.
16G	.	.
16B-	8g') 8b-'J	.
16GJJ	.	.
=9	=9	=9
*	*^	*
16E-LL	(8ee-	2a-	.
16F	.	.	.
16A-	4dd)	.	.
16FJJ	.	.	.
16E-LL	.	.	.
16F	.	.	.
16A-	(16bb-LL	.	.
16FJJ	16aa-JJ)	.	.
16E-LL	4ryy	(16ggLL	.
16F	.	16ff)	.
16A-	.	(16ee-	.
16FJJ	.	16ddJJ)	.
*	*v	*v	*
=10	=10	=10
16E-LL	(16ffLK	.
16G	8ee-	.
16B-	.	.
16GJJ	32ddLL	.
.	32ccJJJ	.
16E-LL	8b-)	.
16G	.	.
16B-	(8g' 8b-'L	.
16GJJ	.	.
16E-LL	8g' 8b-'	.
16G	.	.
16B-	8g') 8b-'J	.
16GJJ	.	.
=11	=11	=11
*	*^	*
16E-LL	(8ee-	2a-	.
16F	.	.	.
16A-	4dd)	.	.
16FJJ	.	.	.
16E-LL	.	.	.
16F	.	.	.
16A-	16bb-LL	.	.
16FJJ	16aa-JJ	.	.
16E-LL	4ryy	(16ggLL	.
16F	.	16ff)	.
16A-	.	(16ee-	.
16FJJ)	.	16ddJJ)	.
*	*v	*v	*
=12	=12	=12
4E- 4G	8ee-L	.
.	(32ffqLLL	.
.	32ee-q	.
.	32ddqJJJ	.
.	(32ee-LL)	.
.	32ff	.
.	32gg	.
.	32ee-JJJ	.
8r	8b-)	.
8G (8B-L	(8g 8b-L	.
8A- 8c)	8f 8a-	.
8An 8cJ	8e-) 8gJ	.
=13	=13	=13
*	*^	*
4B-	(8.b-L	4e-	.
.	16gJk)	.	.
8r	4f	4d	.
(8B-L	.	.	.
8F	4r	4r	.
8DJ)	.	.	.
*	*v	*v	*
=14	=14	=14
.	(32fqq	.
(8BB-L	4.ff)	.
8D	.	.
8F	.	.
8B-J	(32ee-LLL	.
.	32dd	.
.	32cc	.
.	32b-JJJ	.
8e-L	8anL)	.
8dJ)	8b-J	.
=15	=15	=15
8c (8e-L	(8ccL	.
8B- 8dJ)	32ee-LL	.
.	32dd	.
.	32cc	.
.	32ddJJJ	.
8An 8c	8ee-)	.
8r	(8f'L	.
4r	8f'	.
.	8f'J)	.
=16	=16	=16
*	*^	*
8r	2ryy	4.ee-	.
(8FL	.	.	.
8An	.	.	.
8cJ	.	(32ffLLL	.
.	.	32ee-	.
.	.	32dd	.
.	.	32ccJJJ	.
8dL)	8b-L	8b-L)	.
8e- [8fJ	8ccJ	8anJ	.
=17	=17	=17	=17
8fL]	(8ddL	(8b-L	.
8c 8e-J	32ffLL	8ccJ)	.
.	32ee-	.	.
.	32dd	.	.
.	32ee-JJJ	.	.
8B- 8d	8ff)	8dd	.
(8BB-'L	4.ryy	8r	.
8BB-'	.	4r	.
8BB-'J)	.	.	.
*	*v	*v	*
=18	=18	=18
8r	(4.aa-X	.
(8DL	.	.
8F	.	.
8A-X	32ggLLL	.
.	32ff	.
.	32ee-	.
.	32ddJJJ	.
8G)	8ee-L)	.
8D'J	8ff'J	.
=19	=19	=19
8r	4.ff#	.
8E- 8B-L	.	.
8E- (8B-	.	.
8E- 8Bn)	(16aa-XLL	.
.	16ggJJ	.
8E- 8c	16ffnLL	.
.	16ee-	.
8E- 8AnJ	16dd	.
.	16ccJJ)	.
=20	=20	=20
*	*^	*
8D 8B-XL	2ryy	(24ffLL	.
.	.	24een	.
.	.	24ffJJ	.
8E- (8B-	.	24ggLL	.
.	.	24g	.
.	.	24ee-JJ)	.
8F 8d)	.	(4b-	.
8F 8d	.	.	.
8F 8e-	16ddLL	4an	.
.	16cc	.	.
8F 8e-J	16b-	.	.
.	16ccJJ	.	.
=21	=21	=21	=21
16B- 16d	4b-)	4b-	.
(16B-LL	.	.	.
16d	.	.	.
16fJJ	.	.	.
16e-LL	2ryy	8r	.
16f	.	.	.
16d	.	8b- 8ffL	.
16fJJ	.	.	.
16cLL	.	8cc 8ff	.
16f	.	.	.
16B-	.	8dd 8ffJ	.
16fJJ	.	.	.
=22	=22	=22	=22
16AnLL	([8ffL	4.ee-	.
16c	.	.	.
16e-	32ff]LL	.	.
.	32gg	.	.
16dJJ	32ff	.	.
.	32eenJJJ	.	.
16cLL	8ffL)	.	.
16B-	.	.	.
16A	(8ff)	(8anL	.
16GJJ	.	.	.
16FLL	8gg	8b-	.
16G	.	.	.
16E-	8aanJ)	8ccJ)	.
16FJJ	.	.	.
=23	=23	=23	=23
16DLL	([8bb-L	4.b-	.
16F	.	.	.
16B-	32bb-LL]	.	.
.	32ccc	.	.
16FJJ	32ddd	.	.
.	32bb-JJJ	.	.
8d)	8ff)	.	.
8B- (8dL	4.ryy	8dd (8ffL	.
8c 8e-	.	8cc 8ee-	.
8d 8fJ)	.	8b- 8ddJ)	.
*	*v	*v	*
=24	=24	=24
*^	*	*
4e- 4g	4ryy	([8ccL	.
.	.	32ccLL]	.
.	.	32dd	.
.	.	32ee-	.
.	.	32ccJJJ	.
8r	8r	8gg)	.
(8cL	8E-	(8g 8ee-L	.
8d	4F	8f) 8b-	.
8e-J)	.	8an 8ccJ	.
*v	*v	*	*
=25	=25	=25
*	*^	*
[4B- (4e-	(8.ccL	(4an	.
.	16cc#Jk	.	.
16B-] 16d)	8dd)	8b-)	.
(16B-LL	.	.	.
16d	4.ryy	8b- 8ffL	.
16fJJ	.	.	.
16e-LL	.	8ccn 8ff	.
16d	.	.	.
16c	.	8dd 8ffJ	.
16B-JJ	.	.	.
=26	=26	=26	=26
16AnLL	([8ffL	4.ee-	.
16c	.	.	.
16e-	32ffLL]	.	.
.	32gg	.	.
16dJJ	32ff	.	.
.	32eenJJJ	.	.
16cLL	8ffL)	.	.
16B-	.	.	.
16A	(8ff	(8anL	.
16GJJ	.	.	.
16FLL	8gg	8b-	.
16G	.	.	.
16E-	8aanJ)	8ccJ)	.
16FJJ	.	.	.
=27	=27	=27	=27
16DLL	([8bb-L	4.b-	.
16F	.	.	.
16B-	32bb-LL]	.	.
.	32ccc	.	.
16FJJ	32ddd	.	.
.	32bb-JJJ	.	.
8d)	8ff)	.	.
8B- (8dL	4.ryy	8dd (8ffL	.
8c 8e-	.	8cc 8ee-	.
8d 8fJ)	.	8b- 8ddJ)	.
*	*v	*v	*
=28	=28	=28
*^	*	*
4e- 4g	2r	(32bnLLL	.
.	.	32cc	.
.	.	32dd	.
.	.	32ccJJJ	.
.	.	32ee-LLL	.
.	.	32dd	.
.	.	32ff	.
.	.	32ee-JJJ	.
4r	.	4gg	.
(8AnL	4F 4e-	8ffL)	.
8cJ)	.	16.r	.
.	.	32anJkk	.
*v	*v	*	*
=29	=29	=29
(16B-LL	4b-X	.
16d	.	.
16f	.	.
16dJJ	.	.
16B-LL	8r	.
16d	.	.
16f	(8aa-XL	.
16dJJ	.	.
16e-LL	8gg	.
16c	.	.
16f	8aanJ	.
16e-JJ	.	.
=30	=30	=30
16dLL	8cccL	.
16f	.	.
16d	8bb-J)	.
16cJJ	.	.
16B-LL	8r	.
16A-X	.	.
16F	(8a-XL	.
16DJJ	.	.
16E-LL	8g	.
16C	.	.
16F	8e-) 8anJ	.
16FFJJ	.	.
=31	=31	=31
4.BB-)	(>(4e- 4cc	>
.	8d) 8b-)	.
(8A-XL	(8d 8fL	] p
8G	8e- 8g	.
8FJ)	8f) 8a-XJ	.
=32:|!|:	=32:|!|:	=32:|!|:
*>B	*>B	*>B
2En	(4f# 4an	.
.	8g) 8b-L	.
.	(8b- 8dd-	.
4C	8en 8g	.
.	8a-) 8ccJ	.
=33	=33	=33
2D-	(>4g ((4b-	.
.	8fn) 8a-))	.
.	(8ff'L	.
4A- (4c	8ff'	.
.	8ff'J)	.
=34	=34	=34
*^	*	*
2ryy	4B- 4d-)	(4ff#	.
.	4r	8gg)	.
.	.	(4bb-	.
*clefG2	*clefG2	*	*
4b-	4c	.	.
.	.	8een)	.
=35	=35	=35	=35
(4b-	4.f	(4gg	.
8a-)	.	8ffn)	.
*clefF4	*clefF4	*	*
(8FF'L	4.ryy	8r	.
8FF'	.	4r	.
8FF'J)	.	.	.
*v	*v	*	*
=36	=36	=36
2.FF	8r	.
.	8aa-	.
.	(16ggLL	.
.	16ff	.
.	16ee-X	.
.	16dd-JJ	.
.	16ccLL	.
.	16dd-	.
.	16ff	.
.	16dd-JJ)	.
=37	=37	=37
*	*^	*
4.FF	(4cc	2.dn 2.a-	.
.	2bn)	.	.
(8FF'L	.	.	.
8FF'	.	.	.
8FF'J)	.	.	.
=38	=38	=38	=38
2.FF#	8r	8r	.
.	8cc	4e-	.
.	(16bnLL	.	.
.	16cc	.	.
.	16dd	4e-	.
.	16ccJJ	.	.
.	16bLL	.	.
.	16cc	.	.
.	16ee-	[8e-	.
.	16ddJJ)	.	.
=39	=39	=39	=39
4.GG	(4bn	4e-]	.
.	2cc)	2e-	.
(8GG'L	.	.	.
8GG'	.	.	.
8GG'J)	.	.	.
*	*v	*v	*
=40	=40	=40
(2AA-	8r	.
.	(8e-' 8cc'L	.
.	8e-' 8cc'	.
.	8e-' 8cc'	.
4AAn)	8e-' 8cc'	.
.	8e-') 8cc'J	.
=41	=41	=41
*	*^	*
(4BB-	([8dd-L	4.e-	.
.	32dd-LL]	.	.
.	32cc	.	.
.	32b-	.	.
.	32a-JJJ	.	.
4D-/	8g)	.	.
.	(8ggL	4.ryy	p
4C)	8aa-	.	.
.	[8ccJ	.	.
=42	=42	=42	=42
*^	*	*	*
4ryy	4D-	4ryy	16ccLL]	.
.	.	.	16b-	.
.	.	.	16dd-	.
.	.	.	16ffJJ)	.
(4c	4E-	(>4.a-	4.ryy	.
4d-)	4E-	.	.	.
.	.	16ccLL	8g	.
.	.	16b-JJ	.	.
*v	*v	*	*	*
*	*v	*v	*
=43	=43	=43
!LO:TX:i:t=legato	!	!
16A-LL	4a-)	.
16c	.	.
16e-	.	.
16cJJ	.	.
16A-LL	8r	.
16c	.	.
16e-	8a-' (8cc'L	.
16cJJ	.	.
16A-LL	8a-' 8cc'	.
16c	.	.
16e-	8a-' 8cc'J)	.
16cJJ	.	.
=44	=44	=44
*	*^	*
16GLL	(8ff	4.b- 4.cc	.
16B-	.	.	.
16c	4een)	.	.
16B-JJ	.	.	.
16GLL	.	.	.
16B-	.	.	.
16c	4.ryy	8b-' (8cc'L	.
16B-JJ	.	.	.
16GLL	.	8b-' 8cc'	.
16B-	.	.	.
16c	.	8b-' 8cc'J)	.
16B-JJ	.	.	.
=45	=45	=45	=45
16FLL	(8gg	4.a- 4.cc	.
16A-	.	.	.
16c	4ff)	.	.
16A-JJ	.	.	.
16FLL	.	.	.
16A-	.	.	.
16c	4.ryy	8a-' (8cc'L	.
16A-JJ	.	.	.
16FLL	.	8a-' 8cc'	.
16A-	.	.	.
16c	.	8a-' 8cc'J)	.
16A-JJ	.	.	.
=46	=46	=46	=46
16E-LL	(8aa-	4.a- 4.cc	.
16G-	.	.	.
16A-	4gg-)	.	.
16G-JJ	.	.	.
16E-LL	.	.	.
16G-	.	.	.
16A-	4.ryy	8a-' (8cc'L	.
16G-JJ	.	.	.
16E-LL	.	8a-' 8cc'	.
16G-	.	.	.
16A-	.	8a-' 8cc'J)	.
16G-JJ	.	.	.
=47	=47	=47	=47
16D-LL	(8gg-	4.a- 4.dd-	.
16F-	.	.	.
16A-	4ff-)	.	.
16F-JJ	.	.	.
16D-LL	.	.	.
16F-	.	.	.
16A-	4.ryy	8a- 8ff-L	.
16F-JJ	.	.	.
16C-LL	.	8a- (8ff-	.
16E-	.	.	.
16A-	.	8a- 8ee-J)	.
16E-JJ	.	.	.
=48	=48	=48	=48
4.BB- 4.Fn	(8.ee-L	4.a-	.
.	32ffnLL	.	.
.	32ee-JJJ	.	.
.	8ddn)	.	.
8BB-' (8F'L	(8d' 8a-'L	4.ryy	.
8BB-' 8F'	8d' 8a-'	.	.
8BB-' 8F'J)	8d') 8a-'J	.	.
*	*v	*v	*
=49	=49	=49
4BB- 4F	4d 4a-	.
8r	8r	.
8B- (8fL	8dd' (8aa-'L	.
8B-' 8f'	8dd' 8aa-'	.
8B-' 8f'J)	8dd' 8aa-'J)	.
=50	=50	=50
*	*^	*
4B- 4f	(8.aa-L	4dd	.
.	32aa-qLLL	.	.
.	32ggq	.	.
.	32aa-qJJJ	.	.
.	32bb-LL	.	.
.	32cccJJJ	.	.
4r	2ryy	16bb-LL	.
.	.	16aa-)	.
.	.	(16gg	.
.	.	16ffJJ)	.
4r	.	(16ee-LL	.
.	.	16dd)	.
.	.	(16cc	.
.	.	16b-JJ)	.
=51	=51	=51	=51
2E-	(8.b-L	4g	.
.	32ccLL	.	.
.	32b-JJJ)	.	.
.	(8a-L	8fL	.
.	8g	8e-	.
4r	8cc	8a-	.
.	8b-J)	8gJ	.
=52	=52	=52	=52
(16E-LL	(8.b-L	4g	.
16G	.	.	.
16B-	.	.	.
16E-JJ	32ccLL	.	.
.	32b-JJJ	.	.
16FLL	4a-	2ryy	.
16A-	.	.	.
16d	.	.	.
16FJJ	.	.	.
16GLL	[4g	.	.
16B-	.	.	.
16e-	.	.	.
16GJJ	.	.	.
*	*v	*v	*
=53	=53	=53
2.A- 2.c)	16gLL])	.
.	(<16en	.
.	16f	.
.	16gJJ	.
.	16a-LL	.
.	16an	.
.	16b-	.
.	16bnJJ	.
.	32ddLLL	.
.	32cc	.
.	32b	.
.	32ccJJJ	.
.	32b-LLL	.
.	32a-	.
.	32g	.
.	32fJJJ)	.
=54	=54	=54
(16AAnLL	(4G (4e-X	.
16BB-	.	.
16C	.	.
16BB-JJ)	.	.
4BB-	32F) 32dLLL)	.
.	(32B-	.
.	32An	.
.	32B-JJJ	.
.	32BnLLL	.
.	32c	.
.	32d-	.
.	32dnJJJ	.
4r	32e-LLL	.
.	32en	.
.	32f	.
.	32f#JJJ	.
.	32gLLL	.
.	32a-X	.
.	32an	.
.	32b-JJJ)	.
=55	=55	=55
*^	*^	*
4EE- 4E-	2ryy	(8.b-L	4g	.
.	.	32ccLL	.	.
.	.	32b-JJJ	.	.
4r	.	4ryy	32a-XLLL<	.
.	.	.	32g	.
.	.	.	32cc	.
.	.	.	32b-JJJ	.
.	.	.	32ee-LLL	.
.	.	.	32dd	.
.	.	.	32ff	.
.	.	.	32ee-JJJ	.
4c	4E-	4ryy	32aa-LLL	.
.	.	.	32gg	.
.	.	.	32ff#	.
.	.	.	32ggJJJ	.
.	.	.	32ffnLLL	.
.	.	.	32ee-	.
.	.	.	32dd	.
.	.	.	32ccJJJ)	.
*	*	*v	*v	*
=56	=56	=56	=56
4c	4F	(8b-/	.
.	.	4an	.
4d	8B-L	.	.
.	8Bn	[8a-	.
[4e-	8c	16a-LL>]	.
.	.	16g	.
.	8GJ	16ee-	.
.	.	16dd-JJ)	.
=57	=57	=57	=57
8e-]	8A-	(16bnLL	.
.	.	16cc	.
8r	8r	16ddn)	.
.	.	16ee-JJ	.
4G	2BB-X	(8ee-L	.
.	.	[8b-J	.
4A-	.	16b-LL]	.
.	.	32ccL	.
.	.	32b-JJJ)	.
.	.	(32b-LLL	.
.	.	32a-	.
.	.	32g	.
.	.	32fJJJ	.
*v	*v	*	*
=58	=58	=58
!LO:TX:i:t=legato	!	!
16E-LL	4e-)	.
16G	.	.
16B-	.	.
16GJJ	.	.
16E-LL	8r	.
16G	.	.
16B-	(8g' 8b-'L	.
16GJJ	.	.
16E-LL	8g' 8b-'	.
16G	.	.
16B-	8g') 8b-'J	.
16GJJ	.	.
=59	=59	=59
*	*^	*
16E-LL	(8ee-	4.a-	.
16F	.	.	.
16A-	4dd)	.	.
16FJJ	.	.	.
16E-LL	.	.	.
16F	.	.	.
16A-	4.ryy	(16bb-LL	.
16FJJ	.	16aa-JJ)	.
16E-LL	.	(16ggLL	.
16F	.	16ff)	.
16A-	.	(16ee-	.
16FJJ	.	16ddJJ)	.
*	*v	*v	*
=60	=60	=60
16E-LL	(16ffLK	.
16G	8ee-	.
16B-	.	.
16GJJ	32ddLL	.
.	32ccJJJ	.
16E-LL	8b-)	.
16G	.	.
16B-	(8g' 8b-'L	.
16GJJ	.	.
16E-LL	8g' 8b-'	.
16G	.	.
16B-	8g') 8b-'J	.
16GJJ	.	.
=61	=61	=61
*	*^	*
(16E-LL	(16ee-LL	8a-	.
16F	16ddJJ	.	.
16A-	8ryy	4ccc)	.
16FJJ	.	.	.
16E-LL	4r	.	.
16F	.	.	.
16A-	.	(>32bb-LLL	.
.	.	32aa-	.
16FJJ	.	32ccc	.
.	.	32aa-JJJ	.
16E-LL	4ryy	32ggLLL	.
.	.	32ff	.
16F	.	32aa-	.
.	.	32ffJJJ	.
16A-	.	32ee-LLL	.
.	.	32dd	.
16FJJ)	.	32ff	.
.	.	32ddJJJ	.
=62	=62	=62	=62
4E- 4G	4ryy	32ee-LLL	.
.	.	32ff	.
.	.	32ee-	.
.	.	32ddJJJ	.
.	.	(48ee-LLL	.
.	.	48een	.
.	.	48ff)	.
.	.	32ff#	.
.	.	32ggJJJ	.
8r	8ryy	8b-)	.
(8GL	(8b-L	8gL	.
8A-	8a-	8fn	.
8AnJ)	8gJ)	8e-J	.
=63	=63	=63	=63
[4B-	(16b-LL	(4e-	.
.	16an	.	.
.	16b-	.	.
.	16gJJ	.	.
16B-LL]	4f)	4d)	.
(16Bn	.	.	.
16c	.	.	.
16B-JJ)	.	.	.
(16B-LL	4r	4r	.
16A-X	.	.	.
16G	.	.	.
16FJJ)	.	.	.
*	*v	*v	*
=64	=64	=64
.	(>32b-qq	.
(8E-L	4.bb-)	.
8G	.	.
8B-	.	.
8e-J)	(32aa-LLL	.
.	32gg	.
.	32ff	.
.	32ee-JJJ	.
*clefG2	*	*
(8a-L	8ddL	.
8gJ)	8ee-J)	.
=65	=65	=65
*	*^	*
(8f 8a-L	8ffL	(8ddL	.
8e-) 8gJ	(32aa-LL	8ee-J)	.
.	32gg	.	.
.	32ff	.	.
.	32ggJJJ	.	.
8d 8f	8aa-)	8ff	.
8r	4.ryy	(8b-'L	.
4r	.	8b-'	.
.	.	8b-'J)	.
=66	=66	=66	=66
8r	2ryy	(4.aa-	.
(8B-L	.	.	.
8d	.	.	.
8fJ	.	32bb-LLL	.
.	.	32aa-	.
.	.	32gg	.
.	.	32ffJJJ	.
8gL)	8ee-L	8ee-L)	.
8a- [8b-J	8ffJ	8ddJ	.
=67	=67	=67	=67
8g 8b-L]	(8ggL	(8ee-L	.
8f 8a-J	32bb-LL	8ffJ)	.
.	32aa-	.	.
.	32gg	.	.
.	32aa-JJJ	.	.
8e- 8g	8bb-)	8gg	.
*clefF4	*	*	*
(8EE-' 8E-'L	4.ryy	8r	.
8EE-' 8E-'	.	4r	.
8EE-') 8E-'J	.	.	.
*	*v	*v	*
=68	=68	=68
8r	(>4.dd-	.
8G 8e-L	.	.
8G 8e-	.	.
.	32ee-qLLL	.
.	32dd-q	.
.	32ccq	.
.	32dd-qJJJ	.
8G 8e-	16ee-LL	.
.	16ffJJ	.
8G 8e-	16ee-LL	.
.	16dd-	.
8G 8e-J	16cc	.
.	16bnJJ)	.
=69	=69	=69
*^	*	*
8r	8r	([4bn	.
4e-	(8GL	.	.
.	8A-J)	16bLL]	.
.	.	16cc	.
8A- 8e-L	4.ryy	16ee-	.
.	.	16ddnJJ	.
8A- 4e-	.	16ffLL	.
.	.	16ee-	.
8A- 8e-J	.	16dd	.
.	.	16ccJJ)	.
*v	*v	*	*
=70	=70	=70
*	*^	*
8G 8e-L	(24b-XLL	2ryy	.
.	24bn	.	.
.	24ccJJ	.	.
8A- 8e-J	24dd-LL	.	.
.	24ddn)	.	.
.	24ee-JJ	.	.
.	(>32ee-qq	.	.
8BB- 8GL	4e-)	.	.
8BB- 8G	.	.	.
8BB- 8A-	(16gLL	4d	.
.	16f	.	.
8BB- 8A-J	16e-	.	.
.	16fJJ)	.	.
=71	=71	=71	=71
16E- 16G	4e-	4e-	.
(16E-LL	.	.	.
16G	.	.	.
16B-JJ	.	.	.
16A-LL	8r	2ryy	.
16B-	.	.	.
16G	8e- 8b-L	.	.
16B-JJ	.	.	.
16FLL	8f 8b-	.	.
16B-	.	.	.
16E-	8g 8b-J	.	.
16B-JJ	.	.	.
=72	=72	=72	=72
16DLL	([8b-L	4.a-	.
16F	.	.	.
16A-	32b-LL]	.	.
.	32cc	.	.
16GJJ	32b-	.	.
.	32anJJJ	.	.
16FLL	8b-)	.	.
16E-	.	.	.
16D	4.ryy	8d (8b-L<	.
16CJJ	.	.	.
16BB-LL	.	8e- 8cc	.
16C	.	.	.
16AA-	.	8f 8ddJ)	.
16BB-JJ	.	.	.
=73	=73	=73	=73
16GGLL	([8ee-L	4.e-	.
16BB-	.	.	.
16E-	32ee-LL]	.	.
.	32ff	.	.
16BB-JJ	32gg	.	.
.	32ee-JJJ	.	.
8G')	8b-')	.	.
8E- (8GL	4.ryy	(8g 8b-L	p
8F 8A-	.	8f 8a-	.
8G 8B-J)	.	8e-) 8gJ	.
*	*v	*v	*
=74	=74	=74
*^	*	*
4.ryy	4A- 4c	(<[8fL	.
.	.	32fLL]	.
.	.	32g	.
.	.	32a-	.
.	.	32fJJJ	.
.	8r	8cc)	.
8FL	8AA-	(8c 8a-L	.
(8G	4BB-	8B- 8e-	.
8A-J)	.	8d) 8fJ	.
=75	=75	=75	=75
*	*	*^	*
(4A-	[4E-	(8.fL	(4d	.
.	.	16f#Jk	.	.
16G)	16E-]	8g)	8e-)	.
*clefG2	*clefG2	*	*	*
(16e-LL	8.ryy	.	.	.
16g	.	8ee- 8bb-L	4.ryy	.
16b-JJ	.	.	.	.
16a-LL	4ryy	8ffn 8bb-	.	.
16g	.	.	.	.
16f	.	8gg 8bb-J	.	.
16e-JJ	.	.	.	.
*v	*v	*	*	*
=76	=76	=76	=76
16dLL	([8bb-L	4.aa-	.
16f	.	.	.
16a-	32bb-LL]	.	.
.	32ccc	.	.
16gJJ	32bb-	.	.
.	32aanJJJ	.	.
16fLL	8bb-)	.	.
16e-	.	.	.
16d	4.ryy	8dd (8bb-L	.
16cJJ	.	.	.
16B-LL	.	8ee- 8ccc	.
16c	.	.	.
16A-	.	8ff 8dddJ)	.
16B-JJ	.	.	.
=77	=77	=77	=77
16GLL	[8eee-L	4.ee-	.
16B-	.	.	.
16c	(<32eee-LL]	.	.
.	32ddd	.	.
16dJJ	32eee-	.	.
.	32bb-JJJ	.	.
8e-)	8gg')	.	.
(8e- 8gL	4.ryy	8gg (8bb-L	.
8f 8a-	.	8ff 8aa-	.
8g) 8b-J	.	8ee- 8ggJ)	.
*	*v	*v	*
=78	=78	=78
*^	*	*
4a- 4cc	2ryy	(32eenLLL	.
.	.	32ff	.
.	.	32gg	.
.	.	32ffJJJ	.
.	.	32aa-LLL	.
.	.	32gg	.
.	.	32bb-	.
.	.	32aa-JJJ	.
4r	.	4ccc	.
8dL	4B- 4a-	8bb-L)	.
8fJ	.	16.r	.
.	.	32ddJk	.
*v	*v	*	*
=79	=79	=79
(16e-LL	4ee-X	.
16g	.	.
16b-	.	.
16gJJ	.	.
16e-LL	8r	.
16g	.	.
16b-	(8ddd-L	.
16gJJ	.	.
16a-LL	8ccc	.
16f	.	.
16b-	8dddnJ	.
16a-JJ	.	.
=80	=80	=80
16gLL	8fffL	.
16b-	.	.
16g	8eee-J)	.
16fJJ	.	.
*clefF4	*	*
16e-LL	8r	.
16d-	.	.
16B-	(8dd-L	.
16GJJ	.	.
16A-LL	8cc	.
16F	.	.
16B-	8a- 8ddnJ)	.
16BB-JJ	.	.
=81	=81	=81
*>B1	*>B1	*>B1
4.E-)	(<4a- ((4ff	.
.	8g) 8ee-))	.
(8A-L	(8d 8fL	.
8G	8e- 8g	.
8FJ)	8f) 8a-J	.
=82:|!	=82:|!	=82:|!
*>B2	*>B2	*>B2
4.E-	4a- ((4ff	.
.	8g 8ee-))	.
8r	(8d 8fL	pp
8r	8e- 8g	.
8BB-	8f) 8a-J	.
=83	=83	=83
[2EE- [2E-	(>(2d 2f 2a-	.
8EE-] 8E-]	8e-) 8g)	.
8r	8r	.
==	==	==
*-	*-	*-
!!!RDF**kern: > = above
!!!RDF**kern: < = below
!!!YOR: Alte Mozart-Ausgabe, Band 20, Breitkopf &amp; H&auml;rtel 1877-1883.
!!!YOY: 1878
!!!YEC: 2018 Craig Stuart Sapp
!!!YEM: Licence: (CC BY-NC-SA 4.0) https://creativecommons.org/licenses/by-nc-sa/4.0
!!!YER: 2018
!!!ENC: Craig Stuart Sapp
!!!END: 2009/10/09
!!!EED: Craig Stuart Sapp
!!!EEV: 2018/06/18
!!!EFL: 56/69
!!!AGN: piano sonata
!!!AFR: 
!!!title: @{OTL}, K 309 (284b), mvmt. @{OMV}
